X: 16
T:Boys of Ballysodare
R:reel
S:Trad, arr. Paddy O'Brien
Z:Set: Boys of Balliysodare/Pat Tuohy's/Birmingham
M:C|
L:1/8
Q:1/2=112
K:Dmix
|dG~G2 dGeG|dGGA BAAB|dG~G2 dedB|AcBA GE~D2|
dG~G2 dGeG|dG~G2 BA~A2|Bd~d2 eBdB|AcBA GED||
f|gfga bgaf|gfga bgef|~g2dg bgaf|gfed Bdef|
gfga bgaf|gfga bgeg|bgaf gedB|AcBA GED2||
Bd~d2 Bdgd|Bdgd BAAc|Bd~d2 eBdB|AcBA GE~D2|
Bd~d2 Bdgd|Bdgd BABd|eB~B2 eBdB|AcBA GED2||
